icons/BoxWithTape_filled.svg

<svg width="24" height="24" viewBox="0 0 24 24" fill="none" xmlns="http://www.w3.org/2000/svg">
<path fill-rule="evenodd" clip-rule="evenodd" d="M19,3.25c0.9665,0 1.75,0.7835 1.75,1.75v14c0,0.9665 -0.7835,1.75 -1.75,1.75h-14c-0.9665,0 -1.75,-0.7835 -1.75,-1.75v-14c0,-0.9665 0.7835,-1.75 1.75,-1.75zM14.125,4.75h-4.25v5.25c0,0.2305 0.1269,0.4423 0.3301,0.551c0.2032,0.1088 0.4498,0.0969 0.6416,-0.031l1.1533,-0.76884l1.1533,0.76884c0.1918,0.1279 0.4384,0.1398 0.6416,0.031c0.2032,-0.1087 0.3301,-0.3205 0.3301,-0.551z" fill="#002B51"/>
</svg>

<svg width="24" height="24" viewBox="0 0 24 24" fill="none" xmlns="http://www.w3.org/2000/svg">
<path fill-rule="evenodd" clip-rule="evenodd" d="M5 3.25C4.0335 3.25 3.25 4.0335 3.25 5V19C3.25 19.9665 4.0335 20.75 5 20.75H19C19.9665 20.75 20.75 19.9665 20.75 19V5C20.75 4.0335 19.9665 3.25 19 3.25H5ZM14.125 4.75H9.875V10C9.875 10.2305 10.0019 10.4423 10.2051 10.551C10.4083 10.6598 10.6549 10.6479 10.8467 10.52L12 9.75116L13.1533 10.52C13.3451 10.6479 13.5917 10.6598 13.7949 10.551C13.9981 10.4423 14.125 10.2305 14.125 10V4.75Z" fill="#002B51"/>
</svg>
